Newaita-dark/apps/22/uget.svg

<?xml version="1.0" encoding="UTF-8"?>
<svg xmlns="http://www.w3.org/2000/svg" xmlns:xlink="http://www.w3.org/1999/xlink" width="22pt" height="22pt" viewBox="0 0 22 22" version="1.1">
<defs>
<radialGradient id="radial0" gradientUnits="userSpaceOnUse" cx="450.908936" cy="189.579361" fx="450.908936" fy="189.579361" r="21.166656" gradientTransform="matrix(0.000000119742,-0.0537161,-0.0966889,-0.0000000698078,29.01788,43.721791)">
<stop offset="0" style="stop-color:rgb(0%,0%,0%);stop-opacity:0.313725;"/>
<stop offset="0.222222" style="stop-color:rgb(0%,0%,0%);stop-opacity:0.27451;"/>
<stop offset="1" style="stop-color:rgb(0%,0%,0%);stop-opacity:0;"/>
</radialGradient>
<radialGradient id="radial1" gradientUnits="userSpaceOnUse" cx="450.908936" cy="189.579361" fx="450.908936" fy="189.579361" r="21.166656" gradientTransform="matrix(-0.000000119742,0.0537161,0.0966889,0.0000000698078,-7.187669,-5.175142)">
<stop offset="0" style="stop-color:rgb(0%,0%,0%);stop-opacity:0.313725;"/>
<stop offset="0.222222" style="stop-color:rgb(0%,0%,0%);stop-opacity:0.27451;"/>
<stop offset="1" style="stop-color:rgb(0%,0%,0%);stop-opacity:0;"/>
</radialGradient>
<radialGradient id="radial2" gradientUnits="userSpaceOnUse" cx="450.908936" cy="189.579361" fx="450.908936" fy="189.579361" r="21.166656" gradientTransform="matrix(-0.000000119742,-0.0537161,0.0966889,-0.0000000698078,-7.187669,43.721791)">
<stop offset="0" style="stop-color:rgb(0%,0%,0%);stop-opacity:0.313725;"/>
<stop offset="0.222222" style="stop-color:rgb(0%,0%,0%);stop-opacity:0.27451;"/>
<stop offset="1" style="stop-color:rgb(0%,0%,0%);stop-opacity:0;"/>
</radialGradient>
<radialGradient id="radial3" gradientUnits="userSpaceOnUse" cx="450.908936" cy="189.579361" fx="450.908936" fy="189.579361" r="21.166656" gradientTransform="matrix(0.000000119742,0.0537161,-0.0966889,0.0000000698078,29.017879,-5.175142)">
<stop offset="0" style="stop-color:rgb(0%,0%,0%);stop-opacity:0.313725;"/>
<stop offset="0.222222" style="stop-color:rgb(0%,0%,0%);stop-opacity:0.27451;"/>
<stop offset="1" style="stop-color:rgb(0%,0%,0%);stop-opacity:0;"/>
</radialGradient>
<filter id="alpha" filterUnits="objectBoundingBox" x="0%" y="0%" width="100%" height="100%">
  <feColorMatrix type="matrix" in="SourceGraphic" values="0 0 0 0 1 0 0 0 0 1 0 0 0 0 1 0 0 0 1 0"/>
</filter>
<mask id="mask0">
  <g filter="url(#alpha)">
<rect x="0" y="0" width="22" height="22" style="fill:rgb(0%,0%,0%);fill-opacity:0.988235;stroke:none;"/>
  </g>
</mask>
<linearGradient id="linear0" gradientUnits="userSpaceOnUse" x1="960" y1="1695.118164" x2="960" y2="175.118118" gradientTransform="matrix(0.0113699,0,0,0.0113699,0,0)">
<stop offset="0" style="stop-color:rgb(40%,73.333333%,41.568627%);stop-opacity:1;"/>
<stop offset="1" style="stop-color:rgb(50.588235%,78.039216%,51.764706%);stop-opacity:1;"/>
</linearGradient>
<clipPath id="clip1">
  <rect x="0" y="0" width="22" height="22"/>
</clipPath>
<g id="surface5" clip-path="url(#clip1)">
<path style=" stroke:none;fill-rule:nonzero;fill:url(#linear0);" d="M 8.1875 1.992188 C 7.683594 1.992188 7.277344 2.398438 7.277344 2.902344 L 7.277344 11.996094 L 4.546875 11.996094 C 3.703125 11.996094 3.316406 13.046875 3.957031 13.597656 L 10.324219 19.054688 C 10.664062 19.347656 11.167969 19.347656 11.507812 19.054688 L 17.875 13.597656 C 18.515625 13.046875 18.125 11.996094 17.28125 11.996094 L 14.554688 11.996094 L 14.554688 2.902344 C 14.554688 2.398438 14.148438 1.992188 13.644531 1.992188 Z M 8.1875 1.992188 "/>
</g>
<mask id="mask1">
  <g filter="url(#alpha)">
<rect x="0" y="0" width="22" height="22" style="fill:rgb(0%,0%,0%);fill-opacity:0.988235;stroke:none;"/>
  </g>
</mask>
<clipPath id="clip2">
  <rect x="0" y="0" width="22" height="22"/>
</clipPath>
<g id="surface8" clip-path="url(#clip2)">
<path style=" stroke:none;fill-rule:nonzero;fill:rgb(100%,100%,100%);fill-opacity:0.392157;" d="M 8.1875 1.992188 C 7.683594 1.992188 7.277344 2.398438 7.277344 2.902344 L 7.277344 3.242188 C 7.277344 2.738281 7.683594 2.332031 8.1875 2.332031 L 13.644531 2.332031 C 14.148438 2.332031 14.554688 2.738281 14.554688 3.242188 L 14.554688 2.902344 C 14.554688 2.398438 14.148438 1.992188 13.644531 1.992188 Z M 4.546875 11.996094 C 3.925781 11.996094 3.550781 12.566406 3.652344 13.085938 C 3.726562 12.683594 4.0625 12.335938 4.546875 12.335938 L 7.277344 12.335938 L 7.277344 11.996094 Z M 14.554688 11.996094 L 14.554688 12.335938 L 17.28125 12.335938 C 17.765625 12.335938 18.101562 12.683594 18.175781 13.085938 C 18.277344 12.566406 17.902344 11.996094 17.28125 11.996094 Z M 14.554688 11.996094 "/>
</g>
<mask id="mask2">
  <g filter="url(#alpha)">
<rect x="0" y="0" width="22" height="22" style="fill:rgb(0%,0%,0%);fill-opacity:0.988235;stroke:none;"/>
  </g>
</mask>
<clipPath id="clip3">
  <rect x="0" y="0" width="22" height="22"/>
</clipPath>
<g id="surface11" clip-path="url(#clip3)">
<path style=" stroke:none;fill-rule:nonzero;fill:rgb(0%,0%,0%);fill-opacity:0.235294;" d="M 3.640625 12.832031 C 3.617188 13.101562 3.710938 13.386719 3.957031 13.597656 L 10.324219 19.054688 C 10.664062 19.347656 11.167969 19.347656 11.507812 19.054688 L 17.875 13.597656 C 18.121094 13.386719 18.214844 13.101562 18.191406 12.832031 C 18.167969 13.046875 18.070312 13.261719 17.875 13.429688 L 11.507812 18.886719 C 11.167969 19.179688 10.664062 19.179688 10.324219 18.886719 L 3.957031 13.429688 C 3.761719 13.261719 3.660156 13.046875 3.640625 12.832031 Z M 3.640625 12.832031 "/>
</g>
<mask id="mask3">
  <g filter="url(#alpha)">
<rect x="0" y="0" width="22" height="22" style="fill:rgb(0%,0%,0%);fill-opacity:0.988235;stroke:none;"/>
  </g>
</mask>
<linearGradient id="linear1" gradientUnits="userSpaceOnUse" x1="254" y1="-126.333344" x2="254" y2="-105.166672" gradientTransform="matrix(0.0429729,0,0,0.0429729,0,9.239163)">
<stop offset="0" style="stop-color:rgb(26.27451%,62.745098%,27.843137%);stop-opacity:1;"/>
<stop offset="1" style="stop-color:rgb(29.803922%,68.627451%,31.372549%);stop-opacity:1;"/>
</linearGradient>
<clipPath id="clip4">
  <rect x="0" y="0" width="22" height="22"/>
</clipPath>
<g id="surface14" clip-path="url(#clip4)">
<path style=" stroke:none;fill-rule:nonzero;fill:url(#linear1);" d="M 7.277344 3.808594 L 14.554688 3.808594 L 14.554688 4.71875 L 7.277344 4.71875 Z M 7.277344 3.808594 "/>
</g>
<mask id="mask4">
  <g filter="url(#alpha)">
<rect x="0" y="0" width="22" height="22" style="fill:rgb(0%,0%,0%);fill-opacity:0.988235;stroke:none;"/>
  </g>
</mask>
<linearGradient id="linear2" gradientUnits="userSpaceOnUse" x1="254" y1="-126.333344" x2="254" y2="-105.166672" gradientTransform="matrix(0.0429729,0,0,0.0429729,0,11.058348)">
<stop offset="0" style="stop-color:rgb(26.27451%,62.745098%,27.843137%);stop-opacity:1;"/>
<stop offset="1" style="stop-color:rgb(29.803922%,68.627451%,31.372549%);stop-opacity:1;"/>
</linearGradient>
<clipPath id="clip5">
  <rect x="0" y="0" width="22" height="22"/>
</clipPath>
<g id="surface17" clip-path="url(#clip5)">
<path style=" stroke:none;fill-rule:nonzero;fill:url(#linear2);" d="M 7.277344 5.628906 L 14.554688 5.628906 L 14.554688 6.539062 L 7.277344 6.539062 Z M 7.277344 5.628906 "/>
</g>
<mask id="mask5">
  <g filter="url(#alpha)">
<rect x="0" y="0" width="22" height="22" style="fill:rgb(0%,0%,0%);fill-opacity:0.988235;stroke:none;"/>
  </g>
</mask>
<linearGradient id="linear3" gradientUnits="userSpaceOnUse" x1="254" y1="-126.333344" x2="254" y2="-105.166672" gradientTransform="matrix(0.0429729,0,0,0.0429729,0,12.877532)">
<stop offset="0" style="stop-color:rgb(26.27451%,62.745098%,27.843137%);stop-opacity:1;"/>
<stop offset="1" style="stop-color:rgb(29.803922%,68.627451%,31.372549%);stop-opacity:1;"/>
</linearGradient>
<clipPath id="clip6">
  <rect x="0" y="0" width="22" height="22"/>
</clipPath>
<g id="surface20" clip-path="url(#clip6)">
<path style=" stroke:none;fill-rule:nonzero;fill:url(#linear3);" d="M 7.277344 7.449219 L 14.554688 7.449219 L 14.554688 8.359375 L 7.277344 8.359375 Z M 7.277344 7.449219 "/>
</g>
<mask id="mask6">
  <g filter="url(#alpha)">
<rect x="0" y="0" width="22" height="22" style="fill:rgb(0%,0%,0%);fill-opacity:0.988235;stroke:none;"/>
  </g>
</mask>
<clipPath id="clip7">
  <rect x="0" y="0" width="22" height="22"/>
</clipPath>
<g id="surface23" clip-path="url(#clip7)">
<path style=" stroke:none;fill-rule:nonzero;fill:rgb(100%,100%,100%);fill-opacity:0.392157;" d="M 7.277344 8.359375 L 14.554688 8.359375 L 14.554688 8.585938 L 7.277344 8.585938 Z M 7.277344 8.359375 "/>
</g>
<mask id="mask7">
  <g filter="url(#alpha)">
<rect x="0" y="0" width="22" height="22" style="fill:rgb(0%,0%,0%);fill-opacity:0.988235;stroke:none;"/>
  </g>
</mask>
<clipPath id="clip8">
  <rect x="0" y="0" width="22" height="22"/>
</clipPath>
<g id="surface26" clip-path="url(#clip8)">
<path style=" stroke:none;fill-rule:nonzero;fill:rgb(100%,100%,100%);fill-opacity:0.392157;" d="M 7.277344 6.539062 L 14.554688 6.539062 L 14.554688 6.765625 L 7.277344 6.765625 Z M 7.277344 6.539062 "/>
</g>
<mask id="mask8">
  <g filter="url(#alpha)">
<rect x="0" y="0" width="22" height="22" style="fill:rgb(0%,0%,0%);fill-opacity:0.988235;stroke:none;"/>
  </g>
</mask>
<clipPath id="clip9">
  <rect x="0" y="0" width="22" height="22"/>
</clipPath>
<g id="surface29" clip-path="url(#clip9)">
<path style=" stroke:none;fill-rule:nonzero;fill:rgb(100%,100%,100%);fill-opacity:0.392157;" d="M 7.277344 4.71875 L 14.554688 4.71875 L 14.554688 4.945312 L 7.277344 4.945312 Z M 7.277344 4.71875 "/>
</g>
<mask id="mask9">
  <g filter="url(#alpha)">
<rect x="0" y="0" width="22" height="22" style="fill:rgb(0%,0%,0%);fill-opacity:0.988235;stroke:none;"/>
  </g>
</mask>
<clipPath id="clip10">
  <rect x="0" y="0" width="22" height="22"/>
</clipPath>
<g id="surface32" clip-path="url(#clip10)">
<path style=" stroke:none;fill-rule:nonzero;fill:rgb(0%,0%,0%);fill-opacity:0.235294;" d="M 7.277344 3.808594 L 14.554688 3.808594 L 14.554688 4.039062 L 7.277344 4.039062 Z M 7.277344 3.808594 "/>
</g>
<mask id="mask10">
  <g filter="url(#alpha)">
<rect x="0" y="0" width="22" height="22" style="fill:rgb(0%,0%,0%);fill-opacity:0.988235;stroke:none;"/>
  </g>
</mask>
<clipPath id="clip11">
  <rect x="0" y="0" width="22" height="22"/>
</clipPath>
<g id="surface35" clip-path="url(#clip11)">
<path style=" stroke:none;fill-rule:nonzero;fill:rgb(0%,0%,0%);fill-opacity:0.235294;" d="M 7.277344 5.628906 L 14.554688 5.628906 L 14.554688 5.855469 L 7.277344 5.855469 Z M 7.277344 5.628906 "/>
</g>
<mask id="mask11">
  <g filter="url(#alpha)">
<rect x="0" y="0" width="22" height="22" style="fill:rgb(0%,0%,0%);fill-opacity:0.988235;stroke:none;"/>
  </g>
</mask>
<clipPath id="clip12">
  <rect x="0" y="0" width="22" height="22"/>
</clipPath>
<g id="surface38" clip-path="url(#clip12)">
<path style=" stroke:none;fill-rule:nonzero;fill:rgb(0%,0%,0%);fill-opacity:0.235294;" d="M 7.277344 7.449219 L 14.554688 7.449219 L 14.554688 7.675781 L 7.277344 7.675781 Z M 7.277344 7.449219 "/>
</g>
<mask id="mask12">
  <g filter="url(#alpha)">
<rect x="0" y="0" width="22" height="22" style="fill:rgb(0%,0%,0%);fill-opacity:0.988235;stroke:none;"/>
  </g>
</mask>
<clipPath id="clip13">
  <rect x="0" y="0" width="22" height="22"/>
</clipPath>
<g id="surface41" clip-path="url(#clip13)">
<path style=" stroke:none;fill-rule:nonzero;fill:rgb(12.941177%,12.941177%,12.941177%);fill-opacity:1;" d="M 8.1875 1.925781 C 7.648438 1.925781 7.210938 2.363281 7.210938 2.902344 L 7.210938 11.933594 L 4.546875 11.933594 C 4.097656 11.933594 3.765625 12.214844 3.632812 12.566406 C 3.503906 12.921875 3.574219 13.355469 3.914062 13.644531 L 10.28125 19.101562 C 10.644531 19.414062 11.183594 19.414062 11.550781 19.101562 L 17.917969 13.644531 C 18.257812 13.355469 18.328125 12.921875 18.195312 12.566406 C 18.066406 12.214844 17.730469 11.933594 17.28125 11.933594 L 14.617188 11.933594 L 14.617188 2.902344 C 14.617188 2.363281 14.183594 1.925781 13.644531 1.925781 Z M 8.1875 2.054688 L 13.644531 2.054688 C 14.113281 2.054688 14.488281 2.429688 14.488281 2.902344 L 14.488281 11.996094 C 14.488281 12.03125 14.519531 12.0625 14.554688 12.0625 L 17.28125 12.0625 C 17.675781 12.0625 17.960938 12.304688 18.074219 12.613281 C 18.1875 12.921875 18.132812 13.289062 17.832031 13.546875 L 11.464844 19.003906 C 11.148438 19.277344 10.683594 19.277344 10.363281 19.003906 L 3.996094 13.546875 C 3.699219 13.289062 3.640625 12.921875 3.753906 12.613281 C 3.871094 12.304688 4.152344 12.0625 4.546875 12.0625 L 7.277344 12.0625 C 7.3125 12.0625 7.339844 12.03125 7.339844 11.996094 L 7.339844 2.902344 C 7.339844 2.429688 7.71875 2.054688 8.1875 2.054688 Z M 8.1875 2.054688 "/>
</g>
</defs>
<g id="surface1">
<path style=" stroke:none;fill-rule:nonzero;fill:url(#radial0);" d="M 10.914062 19.273438 L 12.734375 19.273438 L 12.734375 18.363281 L 10.914062 18.363281 Z M 10.914062 19.273438 "/>
<path style=" stroke:none;fill-rule:nonzero;fill:url(#radial1);" d="M 10.914062 19.273438 L 9.097656 19.273438 L 9.097656 20.183594 L 10.914062 20.183594 Z M 10.914062 19.273438 "/>
<path style=" stroke:none;fill-rule:nonzero;fill:url(#radial2);" d="M 10.914062 19.273438 L 9.097656 19.273438 L 9.097656 18.363281 L 10.914062 18.363281 Z M 10.914062 19.273438 "/>
<path style=" stroke:none;fill-rule:nonzero;fill:url(#radial3);" d="M 10.914062 19.273438 L 12.734375 19.273438 L 12.734375 20.183594 L 10.914062 20.183594 Z M 10.914062 19.273438 "/>
<use xlink:href="#surface5" mask="url(#mask0)"/>
<use xlink:href="#surface8" mask="url(#mask1)"/>
<use xlink:href="#surface11" mask="url(#mask2)"/>
<use xlink:href="#surface14" mask="url(#mask3)"/>
<use xlink:href="#surface17" mask="url(#mask4)"/>
<use xlink:href="#surface20" mask="url(#mask5)"/>
<use xlink:href="#surface23" mask="url(#mask6)"/>
<use xlink:href="#surface26" mask="url(#mask7)"/>
<use xlink:href="#surface29" mask="url(#mask8)"/>
<use xlink:href="#surface32" mask="url(#mask9)"/>
<use xlink:href="#surface35" mask="url(#mask10)"/>
<use xlink:href="#surface38" mask="url(#mask11)"/>
<use xlink:href="#surface41" mask="url(#mask12)"/>
</g>
</svg>

<svg xmlns="http://www.w3.org/2000/svg" xmlns:xlink="http://www.w3.org/1999/xlink" width="22pt" height="22pt" viewBox="0 0 22 22"><defs><radialGradient id="s" gradientUnits="userSpaceOnUse" cx="450.909" cy="189.579" fx="450.909" fy="189.579" r="21.167" gradientTransform="matrix(0 -.05372 -.09669 0 29.018 43.722)"><stop offset="0" stop-opacity=".314"/><stop offset=".222" stop-opacity=".275"/><stop offset="1" stop-opacity="0"/></radialGradient><radialGradient id="t" gradientUnits="userSpaceOnUse" cx="450.909" cy="189.579" fx="450.909" fy="189.579" r="21.167" gradientTransform="matrix(0 .05372 .09669 0 -7.188 -5.175)"><stop offset="0" stop-opacity=".314"/><stop offset=".222" stop-opacity=".275"/><stop offset="1" stop-opacity="0"/></radialGradient><radialGradient id="u" gradientUnits="userSpaceOnUse" cx="450.909" cy="189.579" fx="450.909" fy="189.579" r="21.167" gradientTransform="matrix(0 -.05372 .09669 0 -7.188 43.722)"><stop offset="0" stop-opacity=".314"/><stop offset=".222" stop-opacity=".275"/><stop offset="1" stop-opacity="0"/></radialGradient><radialGradient id="v" gradientUnits="userSpaceOnUse" cx="450.909" cy="189.579" fx="450.909" fy="189.579" r="21.167" gradientTransform="matrix(0 .05372 -.09669 0 29.018 -5.175)"><stop offset="0" stop-opacity=".314"/><stop offset=".222" stop-opacity=".275"/><stop offset="1" stop-opacity="0"/></radialGradient><filter id="a" filterUnits="objectBoundingBox" x="0%" y="0%" width="100%" height="100%"><feColorMatrix in="SourceGraphic" values="0 0 0 0 1 0 0 0 0 1 0 0 0 0 1 0 0 0 1 0"/></filter><mask id="x"><path fill-opacity=".988" d="M0 0h22v22H0z" filter="url(#a)"/></mask><linearGradient id="c" gradientUnits="userSpaceOnUse" x1="960" y1="1695.118" x2="960" y2="175.118" gradientTransform="rotate(.24) scale(.01137)"><stop offset="0" stop-color="#66bb6a"/><stop offset="1" stop-color="#81c784"/></linearGradient><clipPath id="b"><path d="M0 0h22v22H0z"/></clipPath><g id="w" clip-path="url(#b)"><path d="M8.188 1.992a.909.909 0 0 0-.91.91v9.094H4.546c-.844 0-1.23 1.05-.59 1.602l6.367 5.457a.907.907 0 0 0 1.184 0l6.367-5.457c.64-.551.25-1.602-.594-1.602h-2.726V2.902a.909.909 0 0 0-.91-.91zm0 0" fill="url(#c)"/></g><mask id="z"><path fill-opacity=".988" d="M0 0h22v22H0z" filter="url(#a)"/></mask><clipPath id="d"><path d="M0 0h22v22H0z"/></clipPath><g id="y" clip-path="url(#d)"><path d="M8.188 1.992a.909.909 0 0 0-.91.91v.34c0-.504.406-.91.91-.91h5.457c.503 0 .91.406.91.91v-.34a.909.909 0 0 0-.91-.91zM4.546 11.996c-.621 0-.996.57-.895 1.09a.9.9 0 0 1 .895-.75h2.73v-.34zm10.008 0v.34h2.726a.9.9 0 0 1 .895.75c.101-.52-.274-1.09-.895-1.09zm0 0" fill="#fff" fill-opacity=".392"/></g><mask id="B"><path fill-opacity=".988" d="M0 0h22v22H0z" filter="url(#a)"/></mask><clipPath id="e"><path d="M0 0h22v22H0z"/></clipPath><g id="A" clip-path="url(#e)"><path d="M3.64 12.832c-.023.27.07.555.317.766l6.367 5.457a.907.907 0 0 0 1.184 0l6.367-5.457a.892.892 0 0 0 .316-.766.908.908 0 0 1-.316.598l-6.367 5.457a.907.907 0 0 1-1.184 0L3.957 13.43a.891.891 0 0 1-.316-.598zm0 0" fill-opacity=".235"/></g><mask id="D"><path fill-opacity=".988" d="M0 0h22v22H0z" filter="url(#a)"/></mask><linearGradient id="g" gradientUnits="userSpaceOnUse" x1="254" y1="-126.333" x2="254" y2="-105.167" gradientTransform="matrix(.04297 0 0 .04297 0 9.24)"><stop offset="0" stop-color="#43a047"/><stop offset="1" stop-color="#4caf50"/></linearGradient><clipPath id="f"><path d="M0 0h22v22H0z"/></clipPath><g id="C" clip-path="url(#f)"><path d="M7.277 3.809h7.278v.91H7.277zm0 0" fill="url(#g)"/></g><mask id="F"><path fill-opacity=".988" d="M0 0h22v22H0z" filter="url(#a)"/></mask><linearGradient id="i" gradientUnits="userSpaceOnUse" x1="254" y1="-126.333" x2="254" y2="-105.167" gradientTransform="matrix(.04297 0 0 .04297 0 11.058)"><stop offset="0" stop-color="#43a047"/><stop offset="1" stop-color="#4caf50"/></linearGradient><clipPath id="h"><path d="M0 0h22v22H0z"/></clipPath><g id="E" clip-path="url(#h)"><path d="M7.277 5.629h7.278v.91H7.277zm0 0" fill="url(#i)"/></g><mask id="H"><path fill-opacity=".988" d="M0 0h22v22H0z" filter="url(#a)"/></mask><linearGradient id="k" gradientUnits="userSpaceOnUse" x1="254" y1="-126.333" x2="254" y2="-105.167" gradientTransform="matrix(.04297 0 0 .04297 0 12.878)"><stop offset="0" stop-color="#43a047"/><stop offset="1" stop-color="#4caf50"/></linearGradient><clipPath id="j"><path d="M0 0h22v22H0z"/></clipPath><g id="G" clip-path="url(#j)"><path d="M7.277 7.45h7.278v.91H7.277zm0 0" fill="url(#k)"/></g><mask id="J"><path fill-opacity=".988" d="M0 0h22v22H0z" filter="url(#a)"/></mask><clipPath id="l"><path d="M0 0h22v22H0z"/></clipPath><g id="I" clip-path="url(#l)"><path d="M7.277 8.36h7.278v.226H7.277zm0 0" fill="#fff" fill-opacity=".392"/></g><mask id="L"><path fill-opacity=".988" d="M0 0h22v22H0z" filter="url(#a)"/></mask><clipPath id="m"><path d="M0 0h22v22H0z"/></clipPath><g id="K" clip-path="url(#m)"><path d="M7.277 6.54h7.278v.226H7.277zm0 0" fill="#fff" fill-opacity=".392"/></g><mask id="N"><path fill-opacity=".988" d="M0 0h22v22H0z" filter="url(#a)"/></mask><clipPath id="n"><path d="M0 0h22v22H0z"/></clipPath><g id="M" clip-path="url(#n)"><path d="M7.277 4.719h7.278v.226H7.277zm0 0" fill="#fff" fill-opacity=".392"/></g><mask id="P"><path fill-opacity=".988" d="M0 0h22v22H0z" filter="url(#a)"/></mask><clipPath id="o"><path d="M0 0h22v22H0z"/></clipPath><g id="O" clip-path="url(#o)"><path d="M7.277 3.809h7.278v.23H7.277zm0 0" fill-opacity=".235"/></g><mask id="R"><path fill-opacity=".988" d="M0 0h22v22H0z" filter="url(#a)"/></mask><clipPath id="p"><path d="M0 0h22v22H0z"/></clipPath><g id="Q" clip-path="url(#p)"><path d="M7.277 5.629h7.278v.226H7.277zm0 0" fill-opacity=".235"/></g><mask id="T"><path fill-opacity=".988" d="M0 0h22v22H0z" filter="url(#a)"/></mask><clipPath id="q"><path d="M0 0h22v22H0z"/></clipPath><g id="S" clip-path="url(#q)"><path d="M7.277 7.45h7.278v.226H7.277zm0 0" fill-opacity=".235"/></g><mask id="V"><path fill-opacity=".988" d="M0 0h22v22H0z" filter="url(#a)"/></mask><clipPath id="r"><path d="M0 0h22v22H0z"/></clipPath><g id="U" clip-path="url(#r)"><path d="M8.188 1.926a.977.977 0 0 0-.977.976v9.032H4.547a.965.965 0 0 0-.914.632.967.967 0 0 0 .281 1.079l6.367 5.457a.977.977 0 0 0 1.27 0l6.367-5.457c.34-.29.41-.723.277-1.079a.961.961 0 0 0-.914-.632h-2.664V2.902a.974.974 0 0 0-.972-.976zm0 .129h5.457c.468 0 .843.375.843.847v9.094c0 .035.032.066.067.066h2.726c.395 0 .68.243.793.551a.826.826 0 0 1-.242.934l-6.367 5.457a.842.842 0 0 1-1.102 0l-6.367-5.457a.832.832 0 0 1-.242-.934.831.831 0 0 1 .793-.55h2.73c.035 0 .063-.032.063-.067V2.902c0-.472.379-.847.848-.847zm0 0" fill="#212121"/></g></defs><path d="M10.914 19.273h1.82v-.91h-1.82zm0 0" fill="url(#s)"/><path d="M10.914 19.273H9.098v.91h1.816zm0 0" fill="url(#t)"/><path d="M10.914 19.273H9.098v-.91h1.816zm0 0" fill="url(#u)"/><path d="M10.914 19.273h1.82v.91h-1.82zm0 0" fill="url(#v)"/><use xlink:href="#w" mask="url(#x)"/><use xlink:href="#y" mask="url(#z)"/><use xlink:href="#A" mask="url(#B)"/><use xlink:href="#C" mask="url(#D)"/><use xlink:href="#E" mask="url(#F)"/><use xlink:href="#G" mask="url(#H)"/><use xlink:href="#I" mask="url(#J)"/><use xlink:href="#K" mask="url(#L)"/><use xlink:href="#M" mask="url(#N)"/><use xlink:href="#O" mask="url(#P)"/><use xlink:href="#Q" mask="url(#R)"/><use xlink:href="#S" mask="url(#T)"/><use xlink:href="#U" mask="url(#V)"/></svg>
